quality-medium.svg

<svg fill="currentColor" viewBox="0 0 24 24"><path d="M21 6v12a2 2 0 0 1-2 2H5a2 2 0 0 1-2-2V6a2 2 0 0 1 2-2h14a2 2 0 0 1 2 2m-9 4c0-.5-.5-1-1-1H6.5c-.5 0-1 .5-1 1v5H7v-4.5h1V14h1.5v-3.5h1V15H12zm2.5-1a1 1 0 0 0-1 1v4a1 1 0 0 0 1 1h1v1.5h1.25V15h.75a1 1 0 0 0 1-1v-4a1 1 0 0 0-1-1zm.5 1.5h2v3h-2z"/></svg>

<svg  viewBox="0 0 24 24" fill="currentColor"><path  d="M21,6V18A2,2 0 0,1 19,20H5A2,2 0 0,1 3,18V6A2,2 0 0,1 5,4H19A2,2 0 0,1 21,6M12,10C12,9.5 11.5,9 11,9H6.5C6,9 5.5,9.5 5.5,10V15H7V10.5H8V14H9.5V10.5H10.5V15H12V10M14.5,9A1,1 0 0,0 13.5,10V14A1,1 0 0,0 14.5,15H15.5V16.5H16.75V15H17.5A1,1 0 0,0 18.5,14V10A1,1 0 0,0 17.5,9H14.5M15,10.5H17V13.5H15V10.5Z"/></svg>
